!!!!SEGMENT: pl-kk--kk-i-3--059_anonim--uterus-virginens.krn
!!!cenid: 15xx:718
!!!COM: Anonim
!!!COM-rismID: pe30004985
!!!CDT:
!!!CNT:
!!!OTL: Uterus virginens
!!!PDT:
!!!AGN:
!!!SMS-siglum: PL-Kk
!!!SMS-shelfmark: Kk.I.3
!!!SMS-shelfwork: 059 W
!!!SMS-variant:
!!!SMS-altvar:
!!!NIFC-rismSourceID: 1001145493
!!!NIFC-islandoraID: pl-kk:1170
!!!URL-pdf-islandora: https://repozytorium.nifc.pl/islandora/object/pl-kk%3A1170/datastream/PDF/view
!!!URL-scan: https://polish.musicsources.pl/pl/lokalizacje/galeria/rekopisy/5919 @EN{Scan on Polish Music Herritage in Open Access Website} @PL{Skany w portalu Dziedzictwo Muzyki Polskiej w otwartym dostępie}
!!!ONB-nifc: UWAGA: Discantus (s. 157v-159v, skan 0160-0162), Tenor (s. 119v-121v, skan 0292-0294), Bassus (s. 151v-153r, skan 0455-0456)
!!!AIN: 1 bass 1 empty 1 tenor
!!!key:
**kern	**text	**text	**kern	**text	**text	**kern	**text	**text
*part3	*part3	*part3	*part2	*part2	*part2	*part1	*part1	*part1
*staff3	*staff3	*staff3	*staff2	*staff2	*staff2	*staff1	*staff1	*staff1
*Ibass	*	*	*Itenor	*	*	*Iempty	*	*
*I"Basso	*	*	*I"Tenore	*	*	*I"Discantus	*	*
*I'B.	*	*	*I'T.	*	*	*I'A.	*	*
*ICvox	*	*	*ICvox	*	*	*ICvox	*	*
*IG	*	*	*	*	*	*	*	*
*clefF4	*	*	*clefC4	*	*	*clefC1	*	*
*k[]	*	*	*k[]	*	*	*k[]	*	*
*F:	*	*	*F:	*	*	*F:	*	*
*M3/1	*	*	*M3/1	*	*	*M3/1	*	*
*met(O3)	*	*	*met(O3)	*	*	*met(O3)	*	*
*MM360	*	*	*MM360	*	*	*MM360	*	*
=1-	=1-	=1-	=1-	=1-	=1-	=1-	=1-	=1-
0F	U-	Thro-	0A	U-	Thro-	0f	U-	Thro-
1D	-te-	-nus	1F	-te-	-nus	1f	-te-	-nus
=2-	=2-	=2-	=2-	=2-	=2-	=2-	=2-	=2-
0C	-rus	ad-	0G	-rus	ad-	0e	-rus	ad-
1F	vir-	-mi-	1A	vir-	-mi-	1f	vir-	-mi-
=3-	=3-	=3-	=3-	=3-	=3-	=3-	=3-	=3-
*	*	*	*lig	*	*	*lig	*	*
0F	-gi-	-ra-	1F	-gi-	-ra-	1c	-gi-	-ra-
.	.	.	1D	.	.	1d	.	.
*	*	*	*Xlig	*	*	*Xlig	*	*
1G	-ne-	-bi-	1C	-ne-	-bi-	1e	-ne-	-bi-
=4-	=4-	=4-	=4-	=4-	=4-	=4-	=4-	=4-
*	*	*	*	*	*	*	*	*
*	*	*	*custos:C	*	*	*custos:e	*	*
0.F	-us	-lis	0.D	-us	-lis	0.d	-us	-lis
!	!	!	!LO:LB:g=original	!	!	!LO:LB:g=original	!	!
=5-	=5-	=5-	=5-	=5-	=5-	=5-	=5-	=5-
0G	thro-	Di-	0C	thro-	Di-	0e	thro-	Di-
*custos:D	*	*	*	*	*	*	*	*
1F	-nus	-ſpar	1D	-nus	-ſpar	1d	-nus	-ſpar
!LO:LB:g=original	!	!	!	!	!	!	!	!
=6-	=6-	=6-	=6-	=6-	=6-	=6-	=6-	=6-
0D	eſt	et	0F	eſt	et	2d/	eſt	et
.	.	.	.	.	.	2e/	.	.
.	.	.	.	.	.	2f/	.	.
.	.	.	.	.	.	2g\	.	.
1D	e-	di-	1F	e-	di-	1a	e-	di-
=7-	=7-	=7-	=7-	=7-	=7-	=7-	=7-	=7-
*lig	*	*	*lig	*	*	*lig	*	*
1E	-bur-	-ſsi-	1G	-bur-	-ſsi-	1g	-bur-	-ſsi-
1D	.	.	1F	.	.	1a	.	.
*Xlig	*	*	*Xlig	*	*	*Xlig	*	*
1E	-ne-	-mi-	1G	-ne-	-mi-	1g	-ne-	-mi-
=8-	=8-	=8-	=8-	=8-	=8-	=8-	=8-	=8-
*	*	*	*	*	*	*custos:a	*	*
0.F	-us	-lis	0.A	-us	-lis	0.f	-us	-lis
!	!	!	!	!	!	!LO:LB:g=original	!	!
=9-	=9-	=9-	=9-	=9-	=9-	=9-	=9-	=9-
0D	Re-	U-	0F	Re-	U-	0a	Re-	U-
*	*	*	*custos:F	*	*	*	*	*
1E	-gis	-ni-	1G	-gis	-ni-	1g	-gis	-ni-
!	!	!	!LO:LB:g=original	!	!	!	!	!
=10-	=10-	=10-	=10-	=10-	=10-	=10-	=10-	=10-
*lig	*	*	*lig	*	*	*lig	*	*
1D	Sa-	-ver-	1F	Sa-	-ver-	1a	Sa-	-ver-
1E	.	.	1C	.	.	1g	.	.
*Xlig	*	*	*Xlig	*	*	*Xlig	*	*
1F	-lo-	-ſis	1D	-lo-	-ſis	1f	-lo-	-ſis
=11-	=11-	=11-	=11-	=11-	=11-	=11-	=11-	=11-
1E	-mo-	.	1E	-mo-	.	1g	.	.
0D	.	thro-	0F	.	thro-	0f	-mo-	thro-
=12-	=12-	=12-	=12-	=12-	=12-	=12-	=12-	=12-
*custos:F	*	*	*	*	*	*	*	*
0.D;	-nis.	-nis.	0.D;	-nis.	-nis.	0.f;	-nis.	-nis.
!LO:LB:g=original	!	!	!	!	!	!	!	!
=13||-	=13||-	=13||-	=13||-	=13||-	=13||-	=13||-	=13||-	=13||-
0F	Sa-	Vir-	0F	Sa-	Vir-	0f	Sa-	Vir-
1F	-lo-	-go	1D	-lo-	-go	1f	-lo-	-go
=14-	=14-	=14-	=14-	=14-	=14-	=14-	=14-	=14-
0D	-mon	thro-	0F	-mon	thro-	1.a	-mon	thro-
.	.	.	.	.	.	2g\	.	.
*	*	*	*	*	*	*custos:e	*	*
1D	pa-	-nus	1F	pa-	-nus	1f	pa-	-nus
!	!	!	!	!	!	!LO:LB:g=original	!	!
=15-	=15-	=15-	=15-	=15-	=15-	=15-	=15-	=15-
*lig	*	*	*lig	*	*	*lig	*	*
1C	-ci-	ex-	1G	-ci-	ex-	1e	-ci-	ex-
*	*	*	*custos:E	*	*	*	*	*
1D	.	.	1F	.	.	1f	.	.
!	!	!	!LO:LB:g=original	!	!	!	!	!
*Xlig	*	*	*Xlig	*	*	*Xlig	*	*
1C	-fi-	-ti-	1E	-fi-	-ti-	1g	-fi-	-ti-
=16-	=16-	=16-	=16-	=16-	=16-	=16-	=16-	=16-
0.F	-cus	-tit	0.F	-cus	-tit	0.f	-cus	-tit
=17-	=17-	=17-	=17-	=17-	=17-	=17-	=17-	=17-
0F	sum-	Cu-	0F	sum-	Cu-	1.c	sum-	Cu-
.	.	.	.	.	.	2d/	.	.
1E	-mi	-i	1G	-mi	-i	1e	-mi	-i
=18-	=18-	=18-	=18-	=18-	=18-	=18-	=18-	=18-
0D	Re-	de-	0A	Re-	de-	0f	Re-	de-
*custos:F	*	*	*	*	*	*	*	*
1G	-gis	-us	1B-X	-gis	-us	1g	-gis	-us
!LO:LB:g=original	!	!	!	!	!	!	!	!
=19-	=19-	=19-	=19-	=19-	=19-	=19-	=19-	=19-
*lig	*	*	*lig	*	*	*	*	*
1F	u-	prae-	1A	u-	prae-	0a	u-	prae-
1D	.	.	1F	.	.	.	.	.
*Xlig	*	*	*Xlig	*	*	*	*	*
1E	-ni-	-ſti-	1G	-ni-	-ſti-	1g	-ni-	-ſti-
=20-	=20-	=20-	=20-	=20-	=20-	=20-	=20-	=20-
*	*	*	*	*	*	*custos:g	*	*
0.D	-cus	-tit	0.A	-cus	-tit	0.f	-cus	-tit
!	!	!	!	!	!	!LO:LB:g=original	!	!
=21-	=21-	=21-	=21-	=21-	=21-	=21-	=21-	=21-
0E	hunc	tam	0C	hunc	tam	0g	hunc	tam
.	.	.	.	.	.	.	.	.
*	*	*	*custos:F	*	*	*	*	*
1F	e-	prae-	1D	e-	prae-	1f	e-	prae-
!	!	!	!LO:LB:g=original	!	!	!	!	!
=22-	=22-	=22-	=22-	=22-	=22-	=22-	=22-	=22-
*	*	*	*	*	*	*lig	*	*
0D	-le-	-cel-	0F	-le-	-cel-	1f	-le-	-cel-
.	.	.	.	.	.	1d	.	.
*	*	*	*	*	*	*Xlig	*	*
1C	-git	-lens	1G	-git	-lens	1e	-git	-lens
=23-	=23-	=23-	=23-	=23-	=23-	=23-	=23-	=23-
*	*	*	*lig	*	*	*lig	*	*
0F	thro-	do-	1F	thro-	do-	1c	thro-	do-
.	.	.	1D	.	.	1d	.	.
*	*	*	*Xlig	*	*	*Xlig	*	*
1G	.	.	1C	.	.	1e	.	.
=24-	=24-	=24-	=24-	=24-	=24-	=24-	=24-	=24-
*custos:A	*	*	*	*	*	*	*	*
0.F;<	-num.	-num.	0.D;	-num.	-num.	0.d;	-num.	-num.
!LO:LB:g=original	!	!	!	!	!	!	!	!
=25||-	=25||-	=25||-	=25||-	=25||-	=25||-	=25||-	=25||-	=25||-
0A	Haec	In	0A	Haec	In	0a	Haec	In
1A	eſt	hac	1c	eſt	hac	1a	eſt	hac
=26-	=26-	=26-	=26-	=26-	=26-	=26-	=26-	=26-
0D	se-	se-	0d	se-	se-	0a	se-	se-
*	*	*	*custos:c	*	*	*custos:a	*	*
1D	-des	-de	1d	-des	-de	1b	-des	-de
!	!	!	!LO:LB:g=original	!	!	!LO:LB:g=original	!	!
=27-	=27-	=27-	=27-	=27-	=27-	=27-	=27-	=27-
*lig	*	*	*lig	*	*	*lig	*	*
1F	gra-	re-	1c	gra-	re-	1a	gra-	re-
1G	.	.	1B	.	.	1g	.	.
*Xlig	*	*	*Xlig	*	*	*Xlig	*	*
1D	-ti-	-ſi-	1A	-ti-	-ſi-	1f	-ti-	-ſi-
=28-	=28-	=28-	=28-	=28-	=28-	=28-	=28-	=28-
0.E	-ae,	-det	0.G	-ae,	-det	0.g	-ae,	-det
=29-	=29-	=29-	=29-	=29-	=29-	=29-	=29-	=29-
0D	do-	Do-	0A	do-	Do-	0f	do-	Do-
1C	-mus	-mi-	1c	-mus	-mi-	1g	-mus	-mi-
=30-	=30-	=30-	=30-	=30-	=30-	=30-	=30-	=30-
0F	pu-	-nus	0A	pu-	-nus	0a	pu-	-nus
*custos:A	*	*	*	*	*	*	*	*
1G	-di-	qui	1G	-di-	qui	1b	-di-	qui
!LO:LB:g=original	!	!	!	!	!	!	!	!
=31-	=31-	=31-	=31-	=31-	=31-	=31-	=31-	=31-
*lig	*	*	*	*	*	*	*	*
1A	-ci-	prae-	0F	-ci-	prae-	0a	-ci-	prae-
1F	.	.	.	.	.	.	.	.
*Xlig	*	*	*	*	*	*	*	*
1E	-ti-	-ſi-	1G	-ti-	-ſi-	1g	-ti-	-ſi-
=32-	=32-	=32-	=32-	=32-	=32-	=32-	=32-	=32-
*	*	*	*custos:F	*	*	*custos:a	*	*
0.F	-ae	-det	0.A	-ae	-det	0.f	-ae	-det
!	!	!	!LO:LB:g=original	!	!	!LO:LB:g=original	!	!
=33-	=33-	=33-	=33-	=33-	=33-	=33-	=33-	=33-
0D	ſe-	u-	0F	ſe-	u-	1.a	ſe-	u-
.	.	.	.	.	.	2g\	.	.
1F	-des	-ni-	1D	-des	-ni-	1f	-des	-ni-
=34-	=34-	=34-	=34-	=34-	=34-	=34-	=34-	=34-
0G	sum-	-ver-	0C	sum-	-ver-	0e	sum-	-ver-
1F	-mi	-sae	1D	-mi	-sae	1f	-mi	-sae
=35-	=35-	=35-	=35-	=35-	=35-	=35-	=35-	=35-
*lig	*	*	*	*	*	*lig	*	*
1F	de-	re-	1F	de-	re-	1c	de-	re-
1D	.	.	0G	.	.	1f	.	.
*Xlig	*	*	*	*	*	*Xlig	*	*
1E	.	.	.	.	.	1e	.	.
=36-	=36-	=36-	=36-	=36-	=36-	=36-	=36-	=36-
*custos:F	*	*	*	*	*	*	*	*
0.AA;	-i.	-i.	0.A;	-i.	-i.	0.e;	-i.	-i.
!LO:LB:g=original	!	!	!	!	!	!	!	!
=37||-	=37||-	=37||-	=37||-	=37||-	=37||-	=37||-	=37||-	=37||-
0F	Si-	Nec	0A	Si-	Nec	0f	Si-	Nec
*	*	*	*	*	*	*custos:e	*	*
1F	-cut	vel-	1F	-cut	vel-	1f	-cut	vel-
!	!	!	!	!	!	!LO:LB:g=original	!	!
=38-	=38-	=38-	=38-	=38-	=38-	=38-	=38-	=38-
0C	vel-	-lus	0G	vel-	-lus	0e	vel-	-lus
*	*	*	*custos:A	*	*	*	*	*
1E	-lus	cor-	1G	-lus	cor-	1e	-lus	cor-
!	!	!	!LO:LB:g=original	!	!	!	!	!
=39-	=39-	=39-	=39-	=39-	=39-	=39-	=39-	=39-
*lig	*	*	*lig	*	*	*lig	*	*
1D	ma-	-rum-	1A	ma-	-rum-	1f	ma-	-rum-
1E	.	.	1G	.	.	1e	.	.
*Xlig	*	*	*Xlig	*	*	*Xlig	*	*
1C	-du-	-pi-	1E	-du-	-pi-	1g	-du-	-pi-
=40-	=40-	=40-	=40-	=40-	=40-	=40-	=40-	=40-
0.F	-it	-tur	0.F	-it	-tur	0.a	-it	-tur
=41-	=41-	=41-	=41-	=41-	=41-	=41-	=41-	=41-
0F	De	Im-	0c	De	Im-	0a	De	Im-
1D	cae-	-bre	1d	cae-	-bre	1b	cae-	-bre
=42-	=42-	=42-	=42-	=42-	=42-	=42-	=42-	=42-
0A	-le-	plu-	0c	-le-	plu-	0a	-le-	plu-
1F	-sti	-vi-	1A	-sti	-vi-	1a	-sti	-vi-
=43-	=43-	=43-	=43-	=43-	=43-	=43-	=43-	=43-
*lig	*	*	*lig	*	*	*lig	*	*
1G	ro-	-a-	1B	ro-	-a-	1g	ro-	-a-
1F	.	.	1A	.	.	1a	.	.
*Xlig	*	*	*Xlig	*	*	*Xlig	*	*
*custos:D	*	*	*	*	*	*custos:a	*	*
1G	.	.	1G	.	.	1b	.	.
!LO:LB:g=original	!	!	!	!	!	!LO:LB:g=original	!	!
=44-	=44-	=44-	=44-	=44-	=44-	=44-	=44-	=44-
*	*	*	*custos:F	*	*	*	*	*
0.D	-re,	-li,	0.A	-re,	-li,	0.a	-re,	-li,
!	!	!	!LO:PB:g=original	!	!	!	!	!
=45-	=45-	=45-	=45-	=45-	=45-	=45-	=45-	=45-
0D	Sic	Nec	0F	Sic	Nec	1.a	Sic	Nec
.	.	.	.	.	.	2g\	.	.
1F	ven-	pu-	1D	ven-	pu-	1f	ven-	pu-
=46-	=46-	=46-	=46-	=46-	=46-	=46-	=46-	=46-
0G	-ter	-dor	0C	-ter	-dor	0e	-ter	-dor
1F	in-	a-	1D	in-	a-	1d	in-	a-
=47-	=47-	=47-	=47-	=47-	=47-	=47-	=47-	=47-
*	*	*	*	*	*	*lig	*	*
0D	-tu-	-mit-	0F	-tu-	-mit-	1d	-tu-	-mit-
.	.	.	.	.	.	1f	.	.
*	*	*	*	*	*	*Xlig	*	*
1C	-mu-	-ti-	1G	-mu-	-ti-	1e	-mu-	-ti-
=48-	=48-	=48-	=48-	=48-	=48-	=48-	=48-	=48-
0.F	-it	-tur	0.F	-it	-tur	0.f	-it	-tur
=49-	=49-	=49-	=49-	=49-	=49-	=49-	=49-	=49-
*lig	*	*	*lig	*	*	*lig	*	*
1C	ſer-	In	1E	ſer-	In	1g	ſer-	In
1D	.	.	1F	.	.	1f	.	.
*Xlig	*	*	*Xlig	*	*	*Xlig	*	*
*	*	*	*	*	*	*custos:f	*	*
1F	-va-	con-	1D	-va-	con-	1f	-va-	con-
!	!	!	!	!	!	!LO:LB:g=original	!	!
=50-	=50-	=50-	=50-	=50-	=50-	=50-	=50-	=50-
*lig	*	*	*lig	*	*	*lig	*	*
1F	-to	-ce-	1D	-to	-ce-	1f	-to	-ce-
1G	.	.	1E	.	.	1e	.	.
*Xlig	*	*	*Xlig	*	*	*Xlig	*	*
*custos:F	*	*	*custos:D	*	*	*	*	*
1E	p(u)-	-ptu	1C	p(u)-	-ptu	1e	pu-	-ptu
!LO:LB:g=original	!	!	!LO:LB:g=original	!	!	!	!	!
=51-	=51-	=51-	=51-	=51-	=51-	=51-	=51-	=51-
0.F	-do-	ta-	0.D	-do-	ta-	0.d	-vo-	ta-
=52-	=52-	=52-	=52-	=52-	=52-	=52-	=52-	=52-
0.D;<	-re.	-li.	0.D;	-re.	-li.	0.d;	-re.	-li.
=53||-	=53||-	=53||-	=53||-	=53||-	=53||-	=53||-	=53||-	=53||-
0F	Haec	Nar-	0A	Haec	Nar-	0f	Haec	Nar-
1F	eſt	-dus	1A	eſt	-dus	1f	eſt	-dus
=54-	=54-	=54-	=54-	=54-	=54-	=54-	=54-	=54-
0F	a-	o-	0A	a-	o-	0f	a-	o-
1E	-ro-	-do-	1G	-ro-	-do-	1g	-ro-	-do-
=55-	=55-	=55-	=55-	=55-	=55-	=55-	=55-	=55-
0D	-ma-	-ri	0A	-ma-	-ri	0f	-ma-	-ri
*	*	*	*	*	*	*custos:a	*	*
1G	-ti-	fe-	1B	-ti-	fe-	1g	-ti-	fe-
!	!	!	!	!	!	!LO:LB:g=original	!	!
=56-	=56-	=56-	=56-	=56-	=56-	=56-	=56-	=56-
*	*	*	*custos:d	*	*	*	*	*
0.F	-ca	-ra	0.c	-ca	-ra	0.a	-ca	-ra
!	!	!	!LO:LB:g=original	!	!	!	!	!
=57-	=57-	=57-	=57-	=57-	=57-	=57-	=57-	=57-
2D\	cel-	ef-	0d	cel-	ef-	0a	cel-	ef-
2E\	.	.	.	.	.	.	.	.
2F\	.	.	.	.	.	.	.	.
2G\	.	.	.	.	.	.	.	.
*custos:F	*	*	*	*	*	*	*	*
1A	-la	-fu-	1c	-la	-fu-	1a	-la	-fu-
!LO:LB:g=original	!	!	!	!	!	!	!	!
=58-	=58-	=58-	=58-	=58-	=58-	=58-	=58-	=58-
0F	Cre-	-dit	0c;	Cre-	-dit	0a	Cre-	-dit
1F	-a-	o-	1A	-a-	o-	1f	-a-	o-
=59-	=59-	=59-	=59-	=59-	=59-	=59-	=59-	=59-
*lig	*	*	*lig	*	*	*	*	*
1D;	-to-	-do-	1B	-to-	-do-	1.f	-to-	-do-
1F	.	.	1A	.	.	.	.	.
.	.	.	.	.	.	2d/	.	.
*Xlig	*	*	*Xlig	*	*	*	*	*
1C	.	.	1G	.	.	1e	.	.
=60-	=60-	=60-	=60-	=60-	=60-	=60-	=60-	=60-
0.F	-ris	-rem	0.A	-ris	-rem	0.f	-ris	-rem
=61-	=61-	=61-	=61-	=61-	=61-	=61-	=61-	=61-
0c	vei-	o-	0F	vei-	o-	0a	vei-	o-
*	*	*	*	*	*	*custos:cc	*	*
1B	.	-li-	1G	.	-li-	1b	.	-li-
!	!	!	!	!	!	!LO:LB:g=original	!	!
=62-	=62-	=62-	=62-	=62-	=62-	=62-	=62-	=62-
*lig	*	*	*	*	*	*lig	*	*
1A	-lis	-va	0A	-lis	-va	1cc	-lis	-va
1F	.	.	.	.	.	1a	.	.
*Xlig	*	*	*	*	*	*Xlig	*	*
*	*	*	*custos:A	*	*	*	*	*
1G	et	fru-	1B	et	fru-	1g	et	fru-
!	!	!	!LO:LB:g=original	!	!	!	!	!
=63-	=63-	=63-	=63-	=63-	=63-	=63-	=63-	=63-
*lig	*	*	*lig	*	*	*lig	*	*
1D	u-	-cti	1A	u-	-cti	1f	u-	-cti
1E	.	.	1G	.	.	1g	.	.
*Xlig	*	*	*Xlig	*	*	*Xlig	*	*
1F	-ni-	fe-	1A	-ni-	fe-	1f	-ni-	fe-
=64-	=64-	=64-	=64-	=64-	=64-	=64-	=64-	=64-
*custos:D	*	*	*	*	*	*	*	*
0.D	-ca	-ra	0.F	-ca	-ra	0.f	-ca	-ra
!LO:PB:g=original	!	!	!	!	!	!	!	!
=65-	=65-	=65-	=65-	=65-	=65-	=65-	=65-	=65-
0D	me-	vir-	0F	me-	vir-	0a	me-	vir-
1F	-vel-	-go	1D	-vel-	-go	1a	-del-	-go
=66-	=66-	=66-	=66-	=66-	=66-	=66-	=66-	=66-
*	*	*	*	*	*	*lig	*	*
0D	-la	fe-	0F	-la	fe-	1a	-la	fe-
.	.	.	.	.	.	1f	.	.
*	*	*	*	*	*	*Xlig	*	*
*	*	*	*	*	*	*custos:g	*	*
1C	do-	-rens	1G	do-	-rens	1e	do-	-rens
!	!	!	!	!	!	!LO:LB:g=original	!	!
=67-	=67-	=67-	=67-	=67-	=67-	=67-	=67-	=67-
*lig	*	*	*lig	*	*	*lig	*	*
1G	-lo-	flo-	1B	-lo-	flo-	1g	-lo-	flo-
1D	.	.	1A	.	.	1f	.	.
*Xlig	*	*	*Xlig	*	*	*Xlig	*	*
1E	.	.	1G	.	.	1g	.	.
=68-	=68-	=68-	=68-	=68-	=68-	=68-	=68-	=68-
*	*	*	*custos:A	*	*	*	*	*
0.F;<	-ris.	-rem.	0.A;	-ris.	-rem.	0.f;	-ris.	-rem.
!	!	!	!LO:LB:g=original	!	!	!	!	!
=69||-	=69||-	=69||-	=69||-	=69||-	=69||-	=69||-	=69||-	=69||-
0F	Haec	An-	0A	Haec	An-	0f	Haec	An-
1F	vas	-ge-	1c	vas	-ge-	1a	vas	-ge-
=70-	=70-	=70-	=70-	=70-	=70-	=70-	=70-	=70-
*lig	*	*	*	*	*	*	*	*
1G	pi-	-lo-	0Bn	pi-	-lo-	0g	pi-	-lo-
1E	.	.	.	.	.	.	.	.
*Xlig	*	*	*	*	*	*	*	*
*custos:C	*	*	*	*	*	*	*	*
1F	-gmen-	-rum	1A	-gmen-	-rum	1f	-gmen-	-rum
!LO:LB:g=original	!	!	!	!	!	!	!	!
=71-	=71-	=71-	=71-	=71-	=71-	=71-	=71-	=71-
0C	-ta-	do-	0G	-ta-	do-	1.e	-ta-	do-
.	.	.	.	.	.	2f/	.	.
*	*	*	*	*	*	*custos:f	*	*
1C	-ri	-mi-	1E	-ri	-mi-	1g	-ri	-mi-
!	!	!	!	!	!	!LO:LB:g=original	!	!
=72-	=72-	=72-	=72-	=72-	=72-	=72-	=72-	=72-
0.F	um	-na	0.F	um	-na	0.f	um	-na
=73-	=73-	=73-	=73-	=73-	=73-	=73-	=73-	=73-
0C	re-	be-	0c	re-	be-	0g	re-	be-
.	.	.	.	.	.	.	.	.
*	*	*	*custos:F	*	*	*	*	*
1D	-ga-	-ne-	1A	-ga-	-ne-	1f	-ga-	-ne-
!	!	!	!LO:LB:g=original	!	!	!	!	!
=74-	=74-	=74-	=74-	=74-	=74-	=74-	=74-	=74-
1.D	-le	-di-	0F	-le	-di-	2d/	-le	-di-
.	.	.	.	.	.	2e/	.	.
.	.	.	.	.	.	2f/	.	.
2E\	.	.	.	.	.	2g\	.	.
1F	pa-	-cta	1D	pa-	-cta	1a	pa-	-cta
=75-	=75-	=75-	=75-	=75-	=75-	=75-	=75-	=75-
1.D	-la-	fae-	0F	-la-	fae-	1.a	-la-	fae-
.	.	.	.	.	.	.	.	.
2E\	.	.	.	.	.	2g\	.	.
1F	-ci-	-mi-	1D	-ci-	-mi-	1f	-ci-	-mi-
=76-	=76-	=76-	=76-	=76-	=76-	=76-	=76-	=76-
*custos:F	*	*	*	*	*	*	*	*
0.G	-um	-na	0.C	-um	-na	0.e	-um	-na
!LO:LB:g=original	!	!	!	!	!	!	!	!
=77-	=77-	=77-	=77-	=77-	=77-	=77-	=77-	=77-
0F	do-	cae-	0F	do-	cae-	1.c	do-	cae-
.	.	.	.	.	.	.	.	.
.	.	.	.	.	.	2d/	.	.
*	*	*	*	*	*	*custos:f	*	*
1E	-mus	-lo-	1G	-mus	-lo-	1e	-mus	-lo-
!	!	!	!	!	!	!LO:LB:g=original	!	!
=78-	=78-	=78-	=78-	=78-	=78-	=78-	=78-	=78-
2D\	eſt	-rum	0A	eſt	-rum	0f	eſt	-rum
2E\	.	.	.	.	.	.	.	.
2F\	.	.	.	.	.	.	.	.
2G\	.	.	.	.	.	.	.	.
1A	Ce-	Re-	1D	Ce-	Re-	1f	Ce-	Re-
=79-	=79-	=79-	=79-	=79-	=79-	=79-	=79-	=79-
0.F	-dri-	-gi-	0.F	-dri-	-gi-	0.a	-dri-	-gi-
=80-	=80-	=80-	=80-	=80-	=80-	=80-	=80-	=80-
*	*	*	*custos:F	*	*	*	*	*
0.F;<	-na	-na	0.F;	-na	-na	0.a;	-na	-na
!	!	!	!LO:LB:g=original	!	!	!	!	!
=81||-	=81||-	=81||-	=81||-	=81||-	=81||-	=81||-	=81||-	=81||-
0F	O	Con-	0F	O	Con-	0a	O	Con-
1F	san-	-ti-	1D	san-	-ti-	1a	san-	-ti-
=82-	=82-	=82-	=82-	=82-	=82-	=82-	=82-	=82-
0D	-cta	-nens	0F	-cta	-nens	0d	-cta	-nens
*custos:C	*	*	*	*	*	*	*	*
1D	vir-	in	1F	vir-	in	1f	vir-	in
!LO:LB:g=original	!	!	!	!	!	!	!	!
=83-	=83-	=83-	=83-	=83-	=83-	=83-	=83-	=83-
*lig	*	*	*lig	*	*	*lig	*	*
1C	-gi-	gre-	1G	-gi-	gre-	1e	-gi-	gre-
1D	.	.	1F	.	.	1d	.	.
*Xlig	*	*	*Xlig	*	*	*Xlig	*	*
*	*	*	*	*	*	*custos:f	*	*
1C	-ni-	-mi-	1G	-ni-	-mi-	1e	-ni-	-mi-
!	!	!	!	!	!	!LO:LB:g=original	!	!
=84-	=84-	=84-	=84-	=84-	=84-	=84-	=84-	=84-
2F\	-tas	-o	0.A	-tas	-o	1.f	-tas	-o
2G\	.	.	.	.	.	.	.	.
2A\	.	.	.	.	.	.	.	.
2B\	.	.	.	.	.	2g\	.	.
1c	.	.	.	.	.	1a	.	.
=85-	=85-	=85-	=85-	=85-	=85-	=85-	=85-	=85-
*lig	*	*	*	*	*	*	*	*
1B	no-	quem	0G	no-	quem	0b	no-	quem
1G	.	.	.	.	.	.	.	.
*Xlig	*	*	*	*	*	*	*	*
*	*	*	*custos:B	*	*	*	*	*
1F	-ſtra	nec	1A	-ſtra	nec	1a	-ſtra	nec
!	!	!	!LO:LB:g=original	!	!	!	!	!
=86-	=86-	=86-	=86-	=86-	=86-	=86-	=86-	=86-
1G	ne-	cae-	0B-X	ne-	cae-	0g	ne-	cae-
1E	.	.	.	.	.	.	.	.
1F	-quit	-li	1A	-quit	-li	1f	-quit	-li
=87-	=87-	=87-	=87-	=87-	=87-	=87-	=87-	=87-
0C	pa-	re-	0G	pa-	re-	1.e	pa-	re-
.	.	.	.	.	.	2f/	-ru-	.
*custos:F	*	*	*	*	*	*	*	*
1C	-rui-	-gi-	1E	-rui-	-gi-	1g	-i-	-gi-
!LO:LB:g=original	!	!	!	!	!	!	!	!
=88-	=88-	=88-	=88-	=88-	=88-	=88-	=88-	=88-
0.F	-tas	-o	0.F	-tas	-o	1.f	-tas	-o
.	.	.	.	.	.	2g\	.	.
.	.	.	.	.	.	1a	.	.
=89-	=89-	=89-	=89-	=89-	=89-	=89-	=89-	=89-
*lig	*	*	*lig	*	*	*lig	*	*
1C	te	po-	1E	te	po-	1g	te	po-
1D	.	.	1F	.	.	1f	.	.
*Xlig	*	*	*Xlig	*	*	*Xlig	*	*
*	*	*	*	*	*	*custos:d	*	*
1C	di-	-test	1G	di-	-test	1e	di-	-test
!	!	!	!	!	!	!LO:LB:g=original	!	!
=90-	=90-	=90-	=90-	=90-	=90-	=90-	=90-	=90-
*	*	*	*lig	*	*	*lig	*	*
1D	-gne	ſuſ-	1F	-gne	ſuſ-	1d	-gne	ſuſ-
1C	.	.	1E	.	.	1e	.	.
*	*	*	*Xlig	*	*	*Xlig	*	*
1D	lau-	-ten-	1F	lau-	-ten-	1d	lau-	-ten-
=91-	=91-	=91-	=91-	=91-	=91-	=91-	=91-	=91-
1.F	-da-	-ta-	0.D	-da-	-ta-	0.a	-da-	-ta-
2E\	.	.	.	.	.	.	.	.
1F	.	.	.	.	.	.	.	.
=92-	=92-	=92-	=92-	=92-	=92-	=92-	=92-	=92-
*	*	*	*custos:G	*	*	*	*	*
1G	.	.	0.D;	-re.	-re.	0.f;	-re.	-re.
*custos:G	*	*	*	*	*	*	*	*
!	!	!	!LO:LB:g=original	!	!	!	!	!
0A;<	-re.	-re.	.	.	.	.	.	.
!LO:LB:g=original	!	!	!	!	!	!	!	!
=93-	=93-	=93-	=93-	=93-	=93-	=93-	=93-	=93-
0G	Pul-	Pla-	0G	Pul-	Pla-	0g	Pul-	Pla-
1D	-chrior	-ca	1A	-chrior	-ca	1f	-chrior	-ca
=94-	=94-	=94-	=94-	=94-	=94-	=94-	=94-	=94-
0C	sӱ-	tu-	0c	sӱ-	tu-	0g	sӱ-	tu-
1F	-de-	-um	1c	-de-	-um	1a	-de-	-um
=95-	=95-	=95-	=95-	=95-	=95-	=95-	=95-	=95-
*lig	*	*	*lig	*	*	*	*	*
1A	-ri-	fi-	1c	-ri-	fi-	0a	-ri-	fi-
1F	.	.	1A	.	.	.	.	.
*Xlig	*	*	*Xlig	*	*	*	*	*
1G	.	-li-	1B	.	-li-	1g	.	-li-
=96-	=96-	=96-	=96-	=96-	=96-	=96-	=96-	=96-
*	*	*	*	*	*	*custos:g	*	*
0C	-bus	-um	0c	-bus	-um	0g	-bus	-um
!	!	!	!	!	!	!LO:LB:g=original	!	!
0G	et	et	0B	et	et	0g	et	et
=97-	=97-	=97-	=97-	=97-	=97-	=97-	=97-	=97-
.	.	.	.	.	.	.	.	.
1F	prae-	pur-	1c	prae-	pur-	1a	prae-	pur-
0D	-mu-	-ga	0d	-mu-	-ga	0a	-mu-	-ga
=98-	=98-	=98-	=98-	=98-	=98-	=98-	=98-	=98-
.	.	.	.	.	.	.	.	.
*	*	*	*custos:c	*	*	*	*	*
1D	-li-	fi-	1d	-li-	fi-	1a	-li-	fi-
!	!	!	!LO:LB:g=original	!	!	!	!	!
*lig	*	*	*lig	*	*	*lig	*	*
1F	-e-	-de-	1c	-e-	-de-	1a	-e-	-de-
=99-	=99-	=99-	=99-	=99-	=99-	=99-	=99-	=99-
1G	.	.	1B	.	.	1g	.	.
*Xlig	*	*	*Xlig	*	*	*Xlig	*	*
*custos:F	*	*	*	*	*	*	*	*
1C	-ri-	-li-	1c	-ri-	-li-	1g	-ri-	-li-
!LO:LB:g=original	!	!	!	!	!	!	!	!
0F	-bus	-um	0A	-bus	-um	0a	-bus	-um
=100-	=100-	=100-	=100-	=100-	=100-	=100-	=100-	=100-
.	.	.	.	.	.	.	.	.
0C	cun-	om-	0c	cun-	om-	0g	cun-	om-
=101-	=101-	=101-	=101-	=101-	=101-	=101-	=101-	=101-
1D	-ctis	-ni-	1A	-ctis	-ni-	1f	-ctis	-ni-
*	*	*	*	*	*	*lig	*	*
0E	be-	-a	0G	be-	-a	1g	be-	-a
.	.	.	.	.	.	1e	.	.
*	*	*	*	*	*	*Xlig	*	*
=102-	=102-	=102-	=102-	=102-	=102-	=102-	=102-	=102-
1D	-ne-	de-	1A	-ne-	de-	1f	-ne-	de-
0C	-di-	-li-	0c	-di-	-li-	0g	-di-	-li-
=103-	=103-	=103-	=103-	=103-	=103-	=103-	=103-	=103-
*	*	*	*custos:c	*	*	*custos:a	*	*
0.C;	-cta.	-cta.	0.c;<	-cta.	-cta.	0.g;	-cta.	-cta.
!	!	!	!LO:PB:g=original	!	!	!LO:LB:g=original	!	!
=104-	=104-	=104-	=104-	=104-	=104-	=104-	=104-	=104-
0F	In	Er-	0c	In	Er-	0a	In	Er-
1F	te	-go	1A	te	-go	1f	te	-go
=105-	=105-	=105-	=105-	=105-	=105-	=105-	=105-	=105-
0D	flu-	tu-	0F	flu-	tu-	0f	flu-	tu-
*custos:C	*	*	*	*	*	*	*	*
1D	-it	-ae	1F	-it	-ae	1d	-it	-ae
!LO:LB:g=original	!	!	!	!	!	!	!	!
=106-	=106-	=106-	=106-	=106-	=106-	=106-	=106-	=106-
0C	in	no-	0G	in	no-	1.e	in	no-
.	.	.	.	.	.	2f/	.	.
1C	te	-bis	1E	te	-bis	1g	te	-bis
=107-	=107-	=107-	=107-	=107-	=107-	=107-	=107-	=107-
0F	plu-	plu-	0F	plu-	plu-	0a	plu-	plu-
1F	-it	-e	1F	-it	-e	1a	-it	-e
=108-	=108-	=108-	=108-	=108-	=108-	=108-	=108-	=108-
0D	De-	gra-	0F	De-	gra-	0d	De-	gra-
*	*	*	*custos:A	*	*	*	*	*
1C	-us	-ti-	1G	-us	-ti-	1e	-us	-ti-
!	!	!	!LO:LB:g=original	!	!	!	!	!
=109-	=109-	=109-	=109-	=109-	=109-	=109-	=109-	=109-
*lig	*	*	*	*	*	*	*	*
1F	ſu-	-ae	0A	ſu-	-ae	0f	ſu-	-ae
1D	.	.	.	.	.	.	.	.
*Xlig	*	*	*	*	*	*	*	*
*	*	*	*	*	*	*custos:a	*	*
1G	-am	cle-	1B-X	-am	cle-	1g	-am	cle-
!	!	!	!	!	!	!LO:LB:g=original	!	!
=110-	=110-	=110-	=110-	=110-	=110-	=110-	=110-	=110-
*lig	*	*	*lig	*	*	*	*	*
1F	gra-	-men-	1A	gra-	-men-	0a	gra-	-men-
1D	.	.	1F	.	.	.	.	.
*Xlig	*	*	*Xlig	*	*	*	*	*
1E	-ti-	-ti-	1G	-ti-	-ti-	1g	-ti-	-ti-
=111-	=111-	=111-	=111-	=111-	=111-	=111-	=111-	=111-
*custos:F	*	*	*	*	*	*	*	*
0.D;<	-am.	-am.	0.A;<	-am.	-am.	0.f;	-am.	-am.
!LO:LB:g=original	!	!	!	!	!	!	!	!
=112-	=112-	=112-	=112-	=112-	=112-	=112-	=112-	=112-
0F	Ad	Et	0A	Ad	Et	0f	Ad	Et
1F	be-	cun-	1c	be-	cun-	1a	be-	cun-
=113-	=113-	=113-	=113-	=113-	=113-	=113-	=113-	=113-
*lig	*	*	*	*	*	*	*	*
1G	-a-	-cto-	0B	-a-	-cto-	0g	-a-	-cto-
1E	.	.	.	.	.	.	.	.
*Xlig	*	*	*	*	*	*	*	*
*	*	*	*custos:G	*	*	*	*	*
1F	-ti	-rum	1A	-ti	-rum	1f	-ti	-rum
!	!	!	!LO:LB:g=original	!	!	!	!	!
=114-	=114-	=114-	=114-	=114-	=114-	=114-	=114-	=114-
0C	tu-	de-	0G	tu-	de-	1.e	tu-	de-
.	.	.	.	.	.	2f/	.	.
1C	-i	-li-	1E	-i	-li-	1g	-i	-li-
=115-	=115-	=115-	=115-	=115-	=115-	=115-	=115-	=115-
1.D	na-	-cto-	0F	na-	-cto-	0f	na-	-cto-
2E\	.	.	.	.	.	.	.	.
*	*	*	*	*	*	*custos:e	*	*
1F	-ti	-rum	1D	-ti	-rum	1f	-ti	-rum
!	!	!	!	!	!	!LO:LB:g=original	!	!
=116-	=116-	=116-	=116-	=116-	=116-	=116-	=116-	=116-
0G	nos	con-	0C	nos	con-	0e	nos	con-
1F	tran-	-fer	1D	tran-	-fer	1d	tran-	-fer
=117-	=117-	=117-	=117-	=117-	=117-	=117-	=117-	=117-
0D	-sfer	in-	0F	-sfer	in-	0d	-sfer	in-
*custos:D	*	*	*	*	*	*	*	*
1C	prae-	-dul-	1G	prae-	-dul-	1e	prae-	-dul-
!LO:LB:g=original	!	!	!	!	!	!	!	!
=118-	=118-	=118-	=118-	=118-	=118-	=118-	=118-	=118-
*lig	*	*	*lig	*	*	*	*	*
1D	-ſen-	-gen-	1F	-ſen-	-gen-	0f	-ſen-	-gen-
1F	.	.	1D	.	.	.	.	.
*Xlig	*	*	*Xlig	*	*	*	*	*
1E	-ti-	-ti-	1C	-ti-	-ti-	1g	-ti-	-ti-
=119-	=119-	=119-	=119-	=119-	=119-	=119-	=119-	=119-
0.D;	-am.	-am.	0.D;	-am.	-am.	0.f;	-am.	-am.
=-	=-	=-	=-	=-	=-	=-	=-	=-
*-	*-	*-	*-	*-	*-	*-	*-	*-
!!!RDF**kern: < = below
!!!system-decoration: [(s1,s2,s3)]
!!!ENC: Arek Malec
!!!END: 2022-01-21
!!!ENC: Julita Ruszuk
!!!END: 2022-01-29
